X:1
T:James Gibb editions
T:Psalm 127 (Becker) - Schütz
%%score [ ( 1 2 ) ( 3 4 ) ]
L:1/8
Q:1/4=98
M:2/2
K:F
V:1 treble nm="Soprano Alto"
V:2 treble 
V:3 bass nm="Tenor Bass"
V:4 bass 
V:1
"^Cornelius Becker\n(1561-1604)""^Psalm 127, SWV 232""^Heinrich Schütz\n(1585-1672)" F4 c2 c2 | %1
w: ~Wo Gott zum|
 A2 G2 A2 B2 | c4 c4 | A2 c2 B2 c2 | A2 G2 F4 |[M:2/2] c4 d2 d2 | A2 c2 B2 B2 | A4 f4 | %8
w: Haus nicht gibt sein|Gunst, so|ar- beit je- der-|mann um- sonst,|wo Gott die|Stadt nicht selbst be-|wacht, so|
 e2 d2 c2 d2 | (cA) G2 F8 |] %10
w: ist um- sonst der|Wäch\- * ter Macht.|
V:2
 C4 F2 E2 | D2 D2 F2 F2 | E4 F4 | C2 _E2 D2 C2 | C2 C2 C4 |[M:2/2] F4 F2 F2 | F2 G2 G2 G2 | %7
 ^F4 A4 | A2 F2 F2 F2 | (F C2) C C8 |] %10
V:3
 A,4 A,2 G,2 | F,2 B,2 C2 D2 | G,4 A,4 | F,2 G,2 G,2 G,2 | F,2 E,2 F,4 | %5
[M:2/2] A,4"^2. Vergebens, daß ihr früh aufsteht, \ndazu mit Hunger schlafen geht\nund eßt eu'r Brot mit Ungemach, \ndenn wem's Gott gönnt, gibt er's im Schlaf.\n\n3. Nun sind sein Erben unsre Kind, \ndie uns von ihm gegeben sind,\ngleich wie die Pfeil ins Starken Hand, \nso ist die Jugend Gott bekannt.\n\n4. Dem soll und muß geschehen wohl, \nder dieser hat sein Köcher voll;\nsie werden nicht zu Schand noch Spott, \nvor ihrem Feind bewahrt sie Gott.\n\n5. Ehr sei dem Vater und dem Sohn \nsamt heilgem Geist in einem Thron,\nwelchs ihm auch also sei bereit \nvon nun an bis in Ewigkeit." A,2 B,2 | %6
 C2 _E2 D2 D2 | D4 D4 | C2 B,2 A,2 B,2 | (A, F,2) E, F,8 |] %10
V:4
 F,4 F,2 C,2 | D,2 G,2 F,2 D,2 | C,4 F,4 | F,2 C,2 G,2 E,2 | (F,A,,) C,2 F,,4 | %5
[M:2/2] F,4 D,2 B,,2 | F,2 C,2 G,2 G,2 | D,4 D,4 | A,2 B,2 F,2 B,,2 | (F,F,,) C,2 F,,8 |] %10

